svg/color/gfi.svg

<svg viewBox="0 0 161 161" fill="none" xmlns="http://www.w3.org/2000/svg">
<path d="M118.988 34.0461C116.168 37.1962 109.588 37.1657 106.768 34.3306C103.948 31.4955 103.008 26.008 106.768 22.5429C110.528 19.0777 116.168 20.3413 118.988 22.8614C121.808 25.3815 121.808 30.896 118.988 34.0461Z" fill="#483E5E"/>
<path d="M89.3971 11.5344C86.3185 15.3078 85.1233 17.5057 82.8001 23.5205C79.7895 31.3148 77.0826 39.9212 75.9831 45.2483C74.8836 50.5755 77.074 55.1511 82.0666 58.2704C87.3482 61.5703 93.0413 64.1391 100.738 67.0247C108.434 69.9102 113.956 74.0238 115.716 78.2411C117.475 82.4584 117.075 90.5798 113.117 98.3486C109.158 106.117 103.642 113.337 93.9669 120.439C84.2913 127.542 77.6821 129.231 68.1144 131.451C58.5468 133.67 61.6888 139.14 64.9873 140.249C68.2857 141.359 75.5421 142.469 85.2181 142.025C94.894 141.581 104.557 139.14 115.992 133.368C127.427 127.597 138.642 117.609 144.591 104.291C150.54 90.9731 152.913 72.1834 146.019 60.3419C142.013 53.461 139.961 51.8043 138.642 47.468C137.322 43.1317 138.167 39.8274 140.625 36.8137C142.042 35.0761 145.209 33.3267 148.11 31.2347C150.397 29.5859 153.155 27.9351 155.134 26.6033C157.113 25.2715 157.786 24.5758 156.466 23.6879L156.419 23.6561C155.084 22.7578 152.453 20.987 147.877 19.2784C143.247 17.5495 142.375 17.3115 140.625 17.1703C138.874 17.029 136.675 18.5827 133.157 21.2463C129.639 23.9099 128.099 24.4301 127.879 27.4613C127.659 30.4926 126.78 34.3423 124.361 37.6717C121.942 41.0012 118.7 42.6917 114.358 43.1317C110.016 43.5716 104.145 42.2243 101.259 38.8113C98.3721 35.3984 97.2089 33.4519 97.2089 28.6121C97.2089 23.7722 99.0726 20.3584 101.55 17.9168C104.028 15.4752 103.91 14.5874 103.91 13.4775C103.91 12.3677 103.334 8.5926 102.853 6.83265C102.371 5.0727 100.642 4.79565 97.8204 5.72202C94.8654 6.69205 92.4757 7.76097 89.3971 11.5344Z" fill="#483E5E"/>
<path d="M45.7965 104.175C44.3715 104.551 43.3722 106.995 40.575 111.885C37.7777 116.774 35.1534 120.347 30.146 125.8C25.1386 131.254 21.993 133.51 14.0274 138.4L13.8219 138.526C6.02164 143.314 3.72752 144.722 3.18626 146.17C2.64028 147.631 2.96143 149.555 8.81707 150.458C14.6727 151.361 19.5544 151.563 28.0133 145.734C36.4722 139.904 43.1185 134.263 51.8832 130.126C60.6479 125.988 63.3919 126.248 73.2094 123.356C83.0269 120.463 91.9765 114.787 98.1524 107.889C104.328 100.991 107.416 94.0387 108.667 90.0882C109.917 86.1377 110.095 80.8736 106.754 78.2405C103.563 75.7248 101.838 74.9684 94.7936 72.3354C87.3018 69.5352 84.8145 68.8334 79.2951 64.4449C74.0938 60.3094 74.4025 59.321 71.134 58.8822C67.8655 58.4433 65.3882 63.3324 64.2854 65.78C63.4555 67.6218 63.3137 70.8734 65.511 73.9339C67.7083 76.9943 69.7514 80.3628 75.77 83.7824C81.7885 87.2021 84.5926 87.7492 88.6962 88.4331C92.7998 89.1171 94.4021 90.0882 93.2993 92.0361C92.1964 93.9841 89.9906 94.9288 86.2409 94.9288C82.4912 94.9288 77.1976 93.2033 71.9039 90.0882C68.1708 87.8914 65.5074 85.4155 63.5615 82.9679C61.6701 80.5888 60.5357 80.2431 58.7821 80.2431C57.0285 80.2431 55.5859 81.3556 53.4884 84.4708C51.391 87.5859 49.8468 90.9605 49.6263 92.7883C49.4057 94.6162 49.2078 96.6548 52.5164 99.1024C55.825 101.55 58.6837 102.88 62.4334 103.548C66.183 104.215 69.0365 105.387 66.2899 107.889C63.5433 110.391 60.2137 109.837 57.5669 109.169C54.92 108.502 51.0796 106.431 49.6263 105.491C48.173 104.551 47.2214 103.799 45.7965 104.175Z" fill="#483E5E"/>
<path d="M128.924 16.3092C130.914 15.0708 133.114 13.4452 133.114 12.3081C133.114 11.171 131.993 9.80643 127.289 6.84995C122.585 3.89348 116.088 0.535674 111.832 0.0271738C107.575 -0.481326 109.419 6.28236 109.921 8.95719C110.422 11.632 110.572 13.7144 112.341 13.9307C114.11 14.1469 115.436 14.3631 116.984 14.7956C118.532 15.228 120.522 16.1605 122.733 17.458C124.944 18.7554 126.934 17.5477 128.924 16.3092Z" fill="#483E5E"/>
</svg>

<svg xmlns="http://www.w3.org/2000/svg" fill="none" viewBox="0 0 161 161"><path fill="#483E5E" d="M118.988 34.046c-2.82 3.15-9.4 3.12-12.22.285s-3.76-8.323 0-11.788 9.4-2.202 12.22.318 2.82 8.035 0 11.185"/><path fill="#483E5E" d="M89.397 11.534c-3.079 3.774-4.274 5.972-6.597 11.986-3.01 7.795-5.717 16.401-6.817 21.728s1.091 9.903 6.084 13.022c5.281 3.3 10.974 5.87 18.671 8.755s13.218 6.999 14.978 11.216 1.359 12.339-2.599 20.108c-3.959 7.768-9.475 14.988-19.15 22.09-9.676 7.103-16.285 8.792-25.853 11.012-9.567 2.219-6.425 7.689-3.127 8.798 3.299 1.11 10.555 2.22 20.231 1.776s19.339-2.885 30.774-8.657c11.435-5.771 22.65-15.759 28.599-29.077s8.322-32.108 1.428-43.95c-4.006-6.88-6.058-8.537-7.377-12.873-1.32-4.336-.475-7.64 1.983-10.654 1.417-1.738 4.584-3.487 7.485-5.58 2.287-1.648 5.045-3.299 7.024-4.63 1.979-1.332 2.652-2.028 1.332-2.916l-.047-.032c-1.335-.898-3.966-2.669-8.542-4.378-4.63-1.729-5.502-1.966-7.252-2.108-1.751-.141-3.95 1.413-7.468 4.076-3.518 2.664-5.058 3.184-5.278 6.215-.22 3.032-1.099 6.881-3.518 10.21s-5.661 5.02-10.003 5.46-10.213-.907-13.099-4.32-4.05-5.36-4.05-10.199c0-4.84 1.864-8.254 4.341-10.695s2.36-3.33 2.36-4.44-.576-4.884-1.057-6.644c-.482-1.76-2.211-2.037-5.033-1.111-2.955.97-5.344 2.039-8.423 5.812"/><path fill="#483E5E" d="M45.797 104.175c-1.425.376-2.425 2.82-5.222 7.71-2.797 4.889-5.422 8.462-10.429 13.915-5.007 5.454-8.153 7.71-16.119 12.6l-.205.126c-7.8 4.788-10.094 6.196-10.636 7.644-.546 1.461-.225 3.385 5.631 4.288s10.737 1.105 19.196-4.724 15.105-11.471 23.87-15.608 11.509-3.878 21.326-6.77c9.818-2.893 18.768-8.569 24.943-15.467s9.264-13.85 10.515-17.8c1.25-3.951 1.428-9.215-1.913-11.849-3.191-2.515-4.916-3.272-11.96-5.905-7.492-2.8-9.98-3.502-15.499-7.89-5.201-4.136-4.892-5.124-8.161-5.563s-5.746 4.45-6.849 6.898c-.83 1.842-.971 5.093 1.226 8.154s4.24 6.429 10.259 9.848 8.823 3.967 12.926 4.651c4.104.684 5.706 1.655 4.603 3.603s-3.308 2.893-7.058 2.893-9.043-1.726-14.337-4.84c-3.733-2.198-6.397-4.674-8.342-7.121-1.892-2.38-3.026-2.725-4.78-2.725-1.753 0-3.196 1.113-5.294 4.228s-3.641 6.49-3.862 8.317c-.22 1.828-.418 3.867 2.89 6.314s6.168 3.778 9.917 4.446c3.75.667 6.604 1.839 3.857 4.341s-6.076 1.948-8.723 1.28-6.487-2.738-7.94-3.678-2.406-1.692-3.83-1.316m83.127-87.865c1.99-1.24 4.19-2.865 4.19-4.002s-1.121-2.502-5.825-5.458S116.088.536 111.832.027c-4.257-.508-2.413 6.255-1.911 8.93s.651 4.757 2.42 4.974c1.769.216 3.095.432 4.643.865 1.548.432 3.538 1.364 5.749 2.662s4.201.09 6.191-1.149"/></svg>
